assets/Crossed fingers/Medium/Flat/crossed_fingers_flat_medium.svg

<svg width="32" height="32" viewBox="0 0 32 32" fill="none" xmlns="http://www.w3.org/2000/svg">
<path d="M23.2933 8.21536C24.3515 10.2175 25.658 13.3437 25.75 16.7029C25.8279 19.5473 25.7814 22.1 24.5312 24.5625C22.8672 27.8403 18.7344 30 15.2031 30C9.39062 30 5.8125 25.7813 5.625 20.7943L5.4375 15.68V14.2269C5.42717 14.1367 5.42188 14.045 5.42188 13.9523V11.579C5.42188 10.1546 6.67058 9 8.21094 9C8.99116 9 9.69655 9.29624 10.2027 9.77371C10.6191 8.67897 11.6314 7.90625 12.8142 7.90625C13.9991 7.90625 15.0129 8.68169 15.4279 9.7795C15.7212 9.20653 16.0661 8.58044 16.4478 7.93987C13.8915 4.98025 14.9149 3.24881 16.2344 2.40627C17.4987 1.59894 18.8186 2.02941 20.0176 3.22569C20.1632 3.08952 20.3085 2.96183 20.4531 2.84375C22.2511 1.37542 23.3881 2.09094 24.0985 2.53796L24.0995 2.53856C24.1296 2.55751 24.1589 2.57597 24.1875 2.59375C24.8343 2.99618 26.2031 5.21875 24.3281 7C23.9665 7.34356 23.6217 7.75765 23.2933 8.21536Z" fill="#C68D7B"/>
<path d="M21.0845 4.53308L21.1195 4.48617C21.5005 3.97446 21.9711 3.34239 22.5209 2.84309C22.9685 2.43656 23.3033 2.26527 23.5595 2.22726C22.8505 1.88084 21.8518 1.70151 20.4531 2.84375C20.3086 2.96182 20.1633 3.0895 20.0177 3.22566C20.3864 3.5936 20.7438 4.03399 21.0845 4.53308Z" fill="#A9715F"/>
<path d="M15.6284 12.4293C15.7772 12.2456 16.7749 11.0649 17.8125 11.0938C18.9375 11.125 19.8281 13.8125 19.8281 13.8125C19.8211 13.6945 19.812 13.5695 19.8008 13.439L19.8032 13.4479L19.8125 13.4609C20.3282 13.5547 21.5 13.8281 22.4063 14.6875C22.4063 14.6875 20.7813 11.0312 18.2813 8.49998C17.0612 7.26461 15.1666 4.24755 15.6293 2.88824C14.677 3.84325 14.3066 5.46062 16.4479 7.93979C16.0661 8.58039 15.7212 9.20651 15.4279 9.7795C15.5572 10.1218 15.6284 10.4953 15.6284 10.8865V12.4293Z" fill="#A9715F"/>
<path d="M10.5353 15.3781C11.0468 16.1242 11.877 16.6094 12.8142 16.6094C13.4607 16.6094 14.0562 16.3785 14.5314 15.9904C14.6206 15.1572 15.0711 14.3587 16.0157 13.8515C16.4085 13.6853 16.8342 13.5656 17.2788 13.4886C14.6212 15.354 16.8053 17.7388 19.7188 18.0625C22.25 18.3437 22.875 19.75 22.875 20.8437C22.875 21.6731 21.7629 22.5528 20.8987 22.1779C20.5027 21.4346 20.1798 20.6453 19.9766 20.0547C19.9288 19.968 19.8807 19.8929 19.8326 19.8279C18.9049 19.7514 17.6762 19.8852 16.4809 20.2404C15.2692 20.6005 14.1493 21.171 13.4209 21.9198C13.2283 22.1177 12.9117 22.122 12.7138 21.9295C12.5159 21.7369 12.5116 21.4203 12.7041 21.2224C13.5954 20.3063 14.8931 19.6691 16.1961 19.2819C16.2597 19.263 16.3234 19.2446 16.3872 19.2268C15.7287 18.9845 15.1875 18.4356 14.8592 17.7648C14.4234 18.4952 13.7575 19 12.7545 19C11.4879 19 10.7238 18.4737 10.3776 17.7974C9.94741 18.4418 9.45037 19 8.07365 19C5.55318 19 5.45988 15.4434 5.42563 14.1381L5.42188 14C5.4494 15.4023 6.68783 16.5312 8.21094 16.5312C8.68509 16.5312 9.89238 16.0134 9.78756 16.0799C9.61235 15.7995 9.42562 15.4221 9.27788 15.0139C9.1186 14.5738 8.99219 14.0638 8.99219 13.5781C8.99219 13.0151 9.00706 12.4894 9.02172 12.0116L9.0256 11.8859C9.03889 11.456 9.05078 11.0712 9.05078 10.7266C9.05078 10.0612 9.20146 9.54579 9.3597 9.22821C9.67936 9.36198 9.96687 9.54987 10.2086 9.77922C10.1922 9.82114 10.1752 9.86969 10.1588 9.92475C10.1008 10.1188 10.0508 10.3884 10.0508 10.7266C10.0508 11.0876 10.0384 11.4882 10.0252 11.914L10.0212 12.0423C10.0066 12.5192 9.99219 13.0317 9.99219 13.5781C9.99219 13.905 10.0806 14.2934 10.2182 14.6736C10.314 14.9382 10.4276 15.1821 10.5353 15.3781Z" fill="#A9715F"/>
</svg>

<svg xmlns="http://www.w3.org/2000/svg" width="32" height="32" fill="none"><path fill="#C68D7B" d="M23.293 8.215c1.059 2.002 2.365 5.129 2.457 8.488.078 2.844.031 5.397-1.219 7.86C22.867 27.84 18.734 30 15.203 30c-5.812 0-9.39-4.219-9.578-9.206l-.188-5.114v-1.453a2.414 2.414 0 0 1-.015-.275V11.58C5.422 10.155 6.67 9 8.21 9c.78 0 1.486.296 1.992.774.416-1.095 1.428-1.868 2.611-1.868 1.185 0 2.199.776 2.614 1.874.293-.573.638-1.2 1.02-1.84-2.556-2.96-1.533-4.691-.214-5.534 1.265-.807 2.585-.377 3.784.82.145-.136.29-.264.435-.382 1.798-1.469 2.935-.753 3.646-.306l.088.056c.647.402 2.016 2.625.141 4.406a8.565 8.565 0 0 0-1.035 1.215Z"/><path fill="#A9715F" d="m21.084 4.533.035-.047c.381-.512.852-1.144 1.402-1.643.447-.406.782-.578 1.038-.616-.709-.346-1.707-.525-3.106.617-.144.118-.29.246-.435.382a9.08 9.08 0 0 1 1.066 1.307ZM15.628 12.43c.15-.184 1.147-1.365 2.184-1.336 1.125.031 2.016 2.719 2.016 2.719a14.255 14.255 0 0 0-.027-.374l.002.009.01.013c.515.094 1.687.367 2.593 1.226 0 0-1.625-3.656-4.125-6.187-1.22-1.235-3.114-4.252-2.652-5.612-.952.955-1.322 2.573.819 5.052-.382.64-.727 1.267-1.02 1.84.13.342.2.715.2 1.107v1.542ZM10.535 15.378c.512.746 1.342 1.231 2.28 1.231.646 0 1.241-.23 1.716-.619.09-.833.54-1.631 1.485-2.139a5.773 5.773 0 0 1 1.263-.362c-2.658 1.865-.474 4.25 2.44 4.573 2.531.282 3.156 1.688 3.156 2.782 0 .83-1.112 1.709-1.976 1.334a15.341 15.341 0 0 1-.922-2.123 2.021 2.021 0 0 0-.144-.227c-.928-.077-2.157.057-3.352.412-1.212.36-2.332.931-3.06 1.68a.5.5 0 0 1-.717-.698c.891-.916 2.19-1.553 3.492-1.94l.191-.055c-.658-.242-1.2-.791-1.528-1.462-.436.73-1.101 1.235-2.104 1.235-1.267 0-2.031-.526-2.377-1.203C9.948 18.442 9.45 19 8.074 19c-2.52 0-2.614-3.557-2.648-4.862L5.422 14c.027 1.402 1.266 2.531 2.789 2.531.474 0 1.681-.518 1.577-.451a5.814 5.814 0 0 1-.51-1.066c-.16-.44-.286-.95-.286-1.436 0-.563.015-1.089.03-1.566l.004-.126c.013-.43.025-.815.025-1.16 0-.665.15-1.18.309-1.498.32.134.607.322.849.551-.017.042-.034.09-.05.146a2.814 2.814 0 0 0-.108.802c0 .36-.013.761-.026 1.187l-.004.128c-.014.477-.029.99-.029 1.536 0 .327.089.715.226 1.096.096.264.21.508.317.704Z"/></svg>
